X:1
T:Calvary (Stanley), 87.87.87
T:Calvary (Stanley), 87.87.87
T:Samuel Stanley, ca. 1800
T:Public Domain Courtesy of the Cyber Hymnal™
C:Samuel Stanley, ca. 1800
Z:Public Domain
Z:Courtesy of the Cyber Hymnal™
%%score ( 1 2 ) ( 3 4 )
L:1/8
Q:1/4=112
M:4/4
K:G
V:1 treble 
V:2 treble 
V:3 bass 
V:4 bass 
V:1
 [DG]3 [DA] [DB]3 [DG] | (GF) (ED) (DG) [DG]2 | [DA]2 ([DB][E^c]) [Dd]3 [EG] x9 | [DF]2 [^CE]2 D4 | %4
 [CA]3 [CA] (GF) (ED) | [DG]2 [DA]2 [DB]2 [DB]2 | [GB]3 [GB] ([FA][EG]) ([DF][B,E]) | %7
 [A,D]2 [A,^C]2 [A,D]4 | [DG]3 [DG] (GF) [A,F]2 | [CE]3 [CE] ([CE][B,D]) [B,D]2 | %10
 [GB]3 [GB] [Gc]3 [Gc] x | [GB]2 [FA]2 G4 |] %12
V:2
 x8 | B,2 C2 B,2 x2 | x17 | x4 D4 | x4 D2 A,2 | x8 | x8 | x8 | x4 D2 x2 | x8 | x9 | x4 G4 |] %12
V:3
 [G,B,]3 [F,A,] G,3 [D,F,] | [E,G,]2 [C,G,]2 G,2 [G,B,]2 | %2
 [F,A,]2 G,[E,G,] [F,A,]3 [G,B,] A,3 z G, [D,F,]4 | [D,F,]3 [D,F,] [D,A,]2 [C,F,]2 | %4
 [B,,G,]2 [D,F,]2 G,2 G,2 | D3 [^C,E] [D,A,]2 ([D,A,][G,,G,]) | [A,,F,]2 [A,,E,]2 [D,F,]4 | %7
 [G,,B,]3 [G,,B,] [D,A,]2 D,2 | [C,G,]3 [C,G,] G,2 G,2 | D3 [G,D] E3 [C,E] | D3 z C [G,,B,]4 | %11
 x8 |] %12
V:4
 x4 G,3 x | x4 G,2 x2 | x2 (G, x4 A,2) A,,2 x6 | x8 | x4 G,2 G,2 | (G,,A,,B,,) x5 | x8 | x6 D,2 | %8
 x4 G,2 G,2 | (G,A,B,) (C,D,E,) x2 | D,2 D,2 x5 | x8 |] %12

